modules/feathericon/icons/vector.svg

<?xml version="1.0" encoding="UTF-8"?>
<svg width="24px" height="24px" viewBox="0 0 24 24" version="1.1" xmlns="http://www.w3.org/2000/svg" xmlns:xlink="http://www.w3.org/1999/xlink">
    <!-- Generator: sketchtool 52.2 (67145) - http://www.bohemiancoding.com/sketch -->
    <title>vector</title>
    <desc>Created with sketchtool.</desc>
    <g id="production" stroke="none" stroke-width="1" fill="none" fill-rule="evenodd">
        <g id="vector" fill="#000000" fill-rule="nonzero">
            <path d="M8,20 C8,21.1045695 7.1045695,22 6,22 L4,22 C2.8954305,22 2,21.1045695 2,20 L2,18 C2,16.8954305 2.8954305,16 4,16 L4,8 C2.8954305,8 2,7.1045695 2,6 L2,4 C2,2.8954305 2.8954305,2 4,2 L6,2 C7.1045695,2 8,2.8954305 8,4 L16,4 C16,2.8954305 16.8954305,2 18,2 L20,2 C21.1045695,2 22,2.8954305 22,4 L22,6 C22,7.1045695 21.1045695,8 20,8 L20,16 C21.1045695,16 22,16.8954305 22,18 L22,20 C22,21.1045695 21.1045695,22 20,22 L18,22 C16.8954305,22 16,21.1045695 16,20 L8,20 Z M8,6 C8,7.1045695 7.1045695,8 6,8 L6,16 C7.1045695,16 8,16.8954305 8,18 L16,18 C16,16.8954305 16.8954305,16 18,16 L18,8 C16.8954305,8 16,7.1045695 16,6 L8,6 Z M4,4 L4,6 L6,6 L6,4 L4,4 Z M18,4 L18,6 L20,6 L20,4 L18,4 Z M18,18 L18,20 L20,20 L20,18 L18,18 Z M4,18 L4,20 L6,20 L6,18 L4,18 Z" id="Shape"></path>
        </g>
    </g>
</svg>

<svg width="24" height="24" viewBox="0 0 24 24" xmlns="http://www.w3.org/2000/svg"><path d="M8 20a2 2 0 0 1-2 2H4a2 2 0 0 1-2-2v-2a2 2 0 0 1 2-2V8a2 2 0 0 1-2-2V4a2 2 0 0 1 2-2h2a2 2 0 0 1 2 2h8a2 2 0 0 1 2-2h2a2 2 0 0 1 2 2v2a2 2 0 0 1-2 2v8a2 2 0 0 1 2 2v2a2 2 0 0 1-2 2h-2a2 2 0 0 1-2-2H8zM8 6a2 2 0 0 1-2 2v8a2 2 0 0 1 2 2h8a2 2 0 0 1 2-2V8a2 2 0 0 1-2-2H8zM4 4v2h2V4H4zm14 0v2h2V4h-2zm0 14v2h2v-2h-2zM4 18v2h2v-2H4z" fill="#000" fill-rule="nonzero"/></svg>
